ressources/icons/application-exit.svg

<svg height="16" width="16" xmlns="http://www.w3.org/2000/svg"><path d="m1.507 0c-.716-.005-1.379.53-1.469 1.25-.063.895-.014 1.822-.03 2.72.004 2.887-.02 5.764 0 8.651.056.724.67 1.344 1.406 1.375h.605l-.019.004 5 2v-2.004h2.603c.822-.005 1.435-.767 1.406-1.562v-2.436c.019-1.351-2.02-1.351-2 0v1.5c.003.495-.537.53-.907.498h-1.102v-7.995l-4.768-1.906a.467.467 0 0 1 .275-.095h4.493c.52 0 .98-.006 1.602 0 .497.106.397.685.406 1.062v.94c-.02 1.351 2.019 1.351 2 0v-1c0-.543.003-1.086 0-1.627-.058-.76-.726-1.404-1.5-1.375zm10.493 4v1a1 1 0 0 0 .293.708l.293.293h-3.586v2h3.586l-.283.283c-.003.003-.007.005-.01.01a1.002 1.002 0 0 0 -.293.706v1h1a1 1 0 0 0 .707-.293l2.293-2.706-2.283-2.698a1 1 0 0 0 -.717-.302zm-8 4h2v1h-2z" fill="#404040" fill-rule="evenodd"/></svg>

<svg height="16" width="16" xmlns="http://www.w3.org/2000/svg"><path d="M1.507 0C.791-.005.128.53.038 1.25c-.063.895-.014 1.822-.03 2.72.004 2.887-.02 5.764 0 8.651.056.724.67 1.344 1.406 1.375h.605L2 14l5 2v-2.004h2.603c.822-.005 1.435-.767 1.406-1.562V9.998c.019-1.351-2.02-1.351-2 0v1.5c.003.495-.537.53-.907.498H7V4.001L2.232 2.095A.467.467 0 0 1 2.507 2H7c.52 0 .98-.006 1.602 0 .497.106.397.685.406 1.062v.94c-.02 1.351 2.019 1.351 2 0v-1c0-.543.003-1.086 0-1.627-.058-.76-.726-1.404-1.5-1.375zM12 4v1a1 1 0 0 0 .293.708l.293.293H9v2h3.586l-.283.283c-.003.003-.007.005-.01.01A1.002 1.002 0 0 0 12 9v1h1a1 1 0 0 0 .707-.293L16 7.001l-2.283-2.698A1 1 0 0 0 13 4.001zM4 8h2v1H4z" fill="#404040" fill-rule="evenodd"/></svg>
